img/sprite/icon-ig.svg

<svg xmlns="http://www.w3.org/2000/svg" preserveAspectRatio="xMidYMid" width="28.219" height="28.219"><path d="M14.103 28.229c-7.795 0-14.114-6.319-14.114-14.114C-.011 6.32 6.308.001 14.103.001c7.795 0 14.114 6.319 14.114 14.114 0 7.795-6.319 14.114-14.114 14.114zm7.21-19.634c0-.867-.702-1.569-1.569-1.569H8.656c-.867 0-1.569.702-1.569 1.569l-.001 11.073c0 .867.703 1.569 1.57 1.569h11.088c.867 0 1.569-.702 1.569-1.569V8.595zm-2.088 2.807h-1.677c-.303 0-.549-.246-.549-.55V9.175c0-.304.246-.55.549-.55h1.677c.304 0 .55.246.55.55v1.677c0 .304-.246.55-.55.55zm-5.003 5.312c-1.41 0-2.552-1.144-2.552-2.553 0-1.411 1.142-2.553 2.552-2.553 1.411 0 2.758 1.029 2.758 2.552 0 1.524-1.347 2.554-2.758 2.554zm0 1.877c2.444 0 4.426-1.982 4.426-4.426 0-.384-.049-.758-.141-1.113.794.001 1.241-.001 1.241-.001v6.104c0 .303-.246.55-.55.55H9.246c-.304 0-.55-.247-.55-.55v-6.104s.251.001 1.241.001c-.092.355-.142.729-.142 1.113 0 2.444 1.982 4.426 4.427 4.426z" opacity=".6" fill-rule="evenodd"/></svg>

<svg xmlns="http://www.w3.org/2000/svg" xmlns:xlink="http://www.w3.org/1999/xlink" preserveAspectRatio="xMidYMid" width="28.219" height="28.219" viewBox="0 0 28.219 28.219">
  <defs>
    <style>
      .cls-1 {
        fill: #000;
        opacity: 0.6;
        fill-rule: evenodd;
      }
    </style>
  </defs>
  <path d="M14.103,28.229 C6.308,28.229 -0.011,21.910 -0.011,14.115 C-0.011,6.320 6.308,0.001 14.103,0.001 C21.898,0.001 28.217,6.320 28.217,14.115 C28.217,21.910 21.898,28.229 14.103,28.229 ZM21.313,8.595 C21.313,7.728 20.611,7.026 19.744,7.026 L8.656,7.026 C7.789,7.026 7.087,7.728 7.087,8.595 L7.086,19.668 C7.086,20.535 7.789,21.237 8.656,21.237 L19.744,21.237 C20.611,21.237 21.313,20.535 21.313,19.668 L21.313,8.595 ZM19.225,11.402 L17.548,11.402 C17.245,11.402 16.999,11.156 16.999,10.852 L16.999,9.175 C16.999,8.871 17.245,8.625 17.548,8.625 L19.225,8.625 C19.529,8.625 19.775,8.871 19.775,9.175 L19.775,10.852 C19.775,11.156 19.529,11.402 19.225,11.402 ZM14.222,16.714 C12.812,16.714 11.670,15.570 11.670,14.161 C11.670,12.750 12.812,11.608 14.222,11.608 C15.633,11.608 16.980,12.637 16.980,14.160 C16.980,15.684 15.633,16.714 14.222,16.714 ZM14.222,18.591 C16.666,18.591 18.648,16.609 18.648,14.165 C18.648,13.781 18.599,13.407 18.507,13.052 C19.301,13.053 19.748,13.051 19.748,13.051 L19.748,19.155 C19.748,19.458 19.502,19.705 19.198,19.705 L9.246,19.705 C8.942,19.705 8.696,19.458 8.696,19.155 L8.696,13.051 C8.696,13.051 8.947,13.052 9.937,13.052 C9.845,13.407 9.795,13.781 9.795,14.165 C9.795,16.609 11.777,18.591 14.222,18.591 Z" class="cls-1"/>
</svg>
